static/icons/balance.svg

<svg width="20" height="22" viewBox="0 0 20 22" fill="none" xmlns="http://www.w3.org/2000/svg">
<path fill-rule="evenodd" clip-rule="evenodd" d="M19.75 17.75H14.999C14.2697 17.75 13.5702 17.4603 13.0545 16.9446C12.5387 16.4288 12.249 15.7294 12.249 15V13C12.249 12.2707 12.5387 11.5712 13.0545 11.0555C13.5702 10.5398 14.2697 10.25 14.999 10.25H19.75V9.00002C19.75 8.27102 19.46 7.57102 18.945 7.05502C18.4288 6.53982 17.7293 6.25033 17 6.25002H3C2.271 6.25002 1.571 6.54002 1.055 7.05502C0.539796 7.57125 0.250306 8.27069 0.25 9.00002V19C0.25 19.729 0.54 20.429 1.055 20.945C1.57122 21.4602 2.27067 21.7497 3 21.75H17C17.729 21.75 18.429 21.46 18.945 20.945C19.4602 20.4288 19.7497 19.7294 19.75 19V17.75ZM19.75 11.75V16.25H14.999C14.309 16.25 13.749 15.69 13.749 15V13C13.749 12.31 14.309 11.75 14.999 11.75H19.75ZM15.5 13C15.7652 13 16.0196 13.1054 16.2071 13.2929C16.3946 13.4805 16.5 13.7348 16.5 14C16.5 14.2652 16.3946 14.5196 16.2071 14.7071C16.0196 14.8947 15.7652 15 15.5 15C15.2348 15 14.9804 14.8947 14.7929 14.7071C14.6054 14.5196 14.5 14.2652 14.5 14C14.5 13.7348 14.6054 13.4805 14.7929 13.2929C14.9804 13.1054 15.2348 13 15.5 13ZM14.088 5.25002H17C17.191 5.25002 17.381 5.26502 17.568 5.29302L18.042 4.27502C18.1259 4.09492 18.1349 3.88888 18.067 3.70214C17.9992 3.51541 17.86 3.36323 17.68 3.27902L11.335 0.320023C11.1548 0.236193 10.9486 0.227338 10.7619 0.295402C10.5751 0.363467 10.423 0.502884 10.339 0.683023L9.802 1.83402L13.102 3.37202C13.4493 3.53394 13.7338 3.80536 13.9119 4.14462C14.0901 4.48387 14.1519 4.87222 14.088 5.25002ZM3.675 5.25002H13.054C13.1294 5.07123 13.1325 4.87018 13.0628 4.68912C12.993 4.50805 12.8558 4.36106 12.68 4.27902L6.335 1.32002C6.15477 1.23619 5.94863 1.22734 5.76188 1.2954C5.57512 1.36347 5.42302 1.50288 5.339 1.68302L3.675 5.25002Z" fill="black"/>
</svg>

<svg xmlns="http://www.w3.org/2000/svg" width="20" height="22" fill="none"><path fill="#000" fill-rule="evenodd" d="M19.75 17.75h-4.751a2.75 2.75 0 0 1-2.75-2.75v-2a2.75 2.75 0 0 1 2.75-2.75h4.751V9c0-.729-.29-1.429-.805-1.945A2.755 2.755 0 0 0 17 6.25H3c-.729 0-1.429.29-1.945.805A2.755 2.755 0 0 0 .25 9v10c0 .729.29 1.429.805 1.945A2.755 2.755 0 0 0 3 21.75h14c.729 0 1.429-.29 1.945-.805A2.755 2.755 0 0 0 19.75 19v-1.25Zm0-6v4.5h-4.751c-.69 0-1.25-.56-1.25-1.25v-2c0-.69.56-1.25 1.25-1.25h4.751ZM15.5 13a1 1 0 1 1 0 2 1 1 0 0 1 0-2Zm-1.412-7.75H17c.191 0 .381.015.568.043l.474-1.018a.75.75 0 0 0-.362-.996L11.335.32a.75.75 0 0 0-.996.363l-.537 1.151 3.3 1.538a1.75 1.75 0 0 1 .986 1.878Zm-10.413 0h9.379a.75.75 0 0 0-.374-.971L6.335 1.32a.75.75 0 0 0-.996.363L3.675 5.25Z" clip-rule="evenodd"/></svg>
